X:54
T:Merrily Kiss the Quaker's Wife
R:slide
H:See also #4
D:Chieftains Live
Z:id:hn-slide-54
M:6/8
K:G
GAB D2B|c2A BGE|GAB DEG|~A3 AGE|
GAB D2B|c2A BGE|GAB D2E|G3 G2D:|
|:G2B d2d|edB d2d|edB d2B|A3 ABA|
G2B d2d|edB dBA|GAB D2E|G3 G2D:|
|:G2B d2d|edB g2e|dBA GBd|e2f g2g|
ged BAB|d2B AGE|GAB D2E|G3 G2D:|
<end>
<start>
